svg/white/soc.svg

<svg width="32" height="32" viewBox="0 0 32 32" version="1.1" xmlns="http://www.w3.org/2000/svg" xmlns:xlink="http://www.w3.org/1999/xlink"><title>svg/white/soc</title><desc>Created with Sketch.</desc><g id="white/soc" stroke="none" stroke-width="1" fill="none" fill-rule="evenodd"><path d="M16,32 C7.163444,32 0,24.836556 0,16 C0,7.163444 7.163444,0 16,0 C24.836556,0 32,7.163444 32,16 C32,24.836556 24.836556,32 16,32 Z M16,4 C9.372583,4 4,9.372583 4,16 C4,22.627417 9.372583,28 16,28 C22.627417,28 28,22.627417 28,16 C28,12.8174021 26.7357179,9.76515517 24.4852814,7.51471863 C22.2348448,5.26428208 19.1825979,4 16,4 Z M18.743125,26.235625 C14.9836035,27.2374562 10.9774252,26.0982478 8.30756498,23.2681394 C5.63770481,20.4380309 4.73368083,16.3723204 5.95270317,12.6775062 C7.17172551,8.98269205 10.317682,6.25318322 14.1475,5.5675 C19.7274907,4.59177803 25.0882195,8.17678401 26.3177464,13.7063946 C27.5472734,19.2360052 24.2108175,24.7548586 18.743125,26.235625 Z M18.930625,7.286875 C18.930625,7.804375 18.930625,8.32 18.949375,8.8375 C18.2580935,8.56903619 17.5384401,8.3803159 16.804375,8.275 C16.774375,7.80625 16.9075,7.290625 16.770625,6.84625 C16.2477011,6.80906766 15.7230373,6.80280676 15.199375,6.8275 C15.173125,7.309375 15.1825,7.793125 15.199375,8.276875 C14.4644235,8.38665015 13.7442297,8.57912115 13.0525,8.850625 C13.0675,8.329375 13.073125,7.808125 13.065625,7.285 C9.32348497,8.54623042 6.80351984,12.0547863 6.80351984,16.00375 C6.80351984,19.9527137 9.32348497,23.4612696 13.065625,24.7225 C13.065625,24.21125 13.060625,23.700625 13.050625,23.190625 C13.7370363,23.4593801 14.4535224,23.6438532 15.184375,23.74 C15.184375,24.20875 15.184375,24.6775 15.15625,25.1425 C15.7159694,25.2215971 16.2840306,25.2215971 16.84375,25.1425 C16.8175,24.679375 16.80625,24.218125 16.804375,23.755 C17.5351508,23.6520833 18.252519,23.4697549 18.94375,23.21125 C18.930625,23.7175 18.925,24.22375 18.94375,24.731875 C22.6850783,23.4682322 25.202782,19.9580499 25.2002342,16.0090849 C25.1976865,12.06012 22.6754557,8.55318923 18.9325,7.294375 L18.930625,7.286875 Z M20.299375,21.221875 C19.091875,22.316875 17.37625,22.575625 15.799375,22.553125 C14.4175,22.553125 12.953125,22.178125 11.95375,21.176875 C11.423125,20.665 11.123125,19.980625 10.855,19.301875 C11.820625,19.0525 12.818125,18.968125 13.79125,18.76 C13.9144859,19.3587799 14.3486492,19.8458724 14.929375,20.036875 C15.8125,20.3125 16.905625,20.351875 17.6425,19.721875 C18.16375,19.28875 18.17875,18.341875 17.531875,18.0175 C16.015,17.23375 14.125,17.5 12.690625,16.508125 C10.71625,15.263125 10.57,11.96125 12.503125,10.616875 C13.980625,9.58 15.956875,9.450625 17.670625,9.866875 C19.22125,10.25875 20.325625,11.573125 20.858125,13.028125 C19.90375,13.193125 18.95125,13.361875 17.996875,13.523125 C17.745625,12.008125 15.625,11.648125 14.57125,12.53125 C13.97125,13.03 14.125,14.093125 14.875,14.359375 C16.515625,15.038125 18.484375,14.843125 19.9375,15.98125 C21.625,17.125 21.80125,19.856875 20.299375,21.221875 Z" id="Combined-Shape" fill="#FFF" fill-rule="nonzero"/></g></svg>

<svg width="32" height="32" viewBox="0 0 32 32" xmlns="http://www.w3.org/2000/svg"><path d="M16 32C7.163 32 0 24.837 0 16S7.163 0 16 0s16 7.163 16 16-7.163 16-16 16zm0-28C9.373 4 4 9.373 4 16s5.373 12 12 12 12-5.373 12-12A12 12 0 0 0 16 4zm2.743 22.236a10.596 10.596 0 1 1-4.595-20.669 10.597 10.597 0 0 1 4.595 20.669zm.188-18.95c0 .518 0 1.034.018 1.552a9.75 9.75 0 0 0-2.145-.563c-.03-.469.104-.984-.033-1.429a13.313 13.313 0 0 0-1.572-.019c-.026.482-.017.966 0 1.45a9.864 9.864 0 0 0-2.146.574c.014-.522.02-1.043.013-1.566a9.2 9.2 0 0 0 0 17.438c0-.512-.005-1.022-.015-1.532a9.113 9.113 0 0 0 2.133.549c0 .469 0 .938-.028 1.402.56.08 1.128.08 1.688 0a26.363 26.363 0 0 1-.04-1.387 10.122 10.122 0 0 0 2.14-.544 24.187 24.187 0 0 0 0 1.52 9.2 9.2 0 0 0-.011-17.437l-.002-.007zm1.368 13.936c-1.207 1.095-2.923 1.354-4.5 1.331-1.381 0-2.846-.375-3.845-1.376-.53-.512-.83-1.196-1.099-1.875.966-.25 1.963-.334 2.936-.542a1.706 1.706 0 0 0 1.138 1.277c.883.276 1.977.315 2.713-.315.522-.433.537-1.38-.11-1.705-1.517-.783-3.407-.517-4.841-1.509-1.975-1.245-2.121-4.547-.188-5.891 1.478-1.037 3.454-1.166 5.168-.75 1.55.392 2.655 1.706 3.187 3.161-.954.165-1.907.334-2.861.495-.251-1.515-2.372-1.875-3.426-.992-.6.499-.446 1.562.304 1.828 1.64.68 3.61.484 5.063 1.622 1.687 1.144 1.863 3.876.361 5.24z" fill="#FFF"/></svg>
